X:1
T:Title
%%score ( 1 2 ) { 3 | 4 }
L:1/8
Q:1/4=86
M:2/4
K:Ab
V:1 treble nm="Grand Piano, Soprano"
V:2 treble 
V:3 bass nm="Choir Pad, Apostle Islands, 11.11.11.11"
V:4 bass 
V:1
 [CE][CE] [EA][EA] | [DF]2 [DA]2 | [DG][DG] [DB][DB] | A2 E2 | [CE][CE] [EA][EA] | [DF]2 [DA]2 | %6
w: By~Myers~G.~Chapman,~1897 * * *||||||
 [=DA][DA] [EB][Dc] | B2- [DB]2 | [CE][CE] [EA][EA] | [DF]2 [DA]2 | [DG][DG] [DB][DB] | A2 E2 | %12
w: ||||||
 [CE][CE] [EA][EA] | [DF]2 [DA]2 | [EA][EA] [Ac][GB] | [EA]4- | [EA]4 |] %17
w: |||||
V:2
 x4 | x4 | x4 | C4 | x4 | x4 | x4 | E2 z2 | x4 | x4 | x4 | C4 | x4 | x4 | x4 | x4 | x4 |] %17
V:3
 A,A, A,A, | A,2 A,2 | B,B, G,G, | E,2 A,2 | A,A, A,A, | A,2 A,2 | F,F, G,A, | G,4 | A,A, A,A, | %9
 A,2 A,2 | B,B, G,G, | E,2 A,2 | A,A, A,A, | A,2 A,2 | CC ED | C4- | C4 |] %17
V:4
 A,,A,, C,C, | D,2 F,2 | E,E, E,E, | A,,4 | A,,A,, C,C, | D,2 F,2 | B,,B,, B,,B,, | E,4 | %8
 A,,A,, C,C, | D,2 F,2 | E,E, E,E, | A,,4 | A,,A,, C,C, | D,2 F,2 | E,E, E,E, | A,,4- | A,,4 |] %17

